X:1
T:Title
%%score ( 1 2 ) ( 3 4 )
L:1/8
Q:1/4=100
M:4/4
K:Eb
V:1 treble nm="Midi_20"
V:2 treble 
V:3 bass nm="Midi_20"
V:4 bass 
V:1
"^Chebar (7 6. 7 6. D.)""^Henry Smart\n(1813-1879)""^William Walsham How\n(1823-97)""^O Word of God Incarnate" B2 | %1
w: O|
w: The|
w: It|
w: O|
 G2 E2 A2 G2 | c4 B2 E2 | A2 A2 G2 F2 | G6 || B2 | G2 E2 A2 G2 | c4 B2 B2 | e2 c2 B2 =A2 | B6 || %10
w: Word of God In-|car- nate, O|Wis- dom from on|high,||||||
w: Church from her dear|Mas- ter Re-|ceived the gift di-|vine,||||||
w: float- eth like a|ban- ner Be-|fore God's host un-|furled;||||||
w: make thy Church, dear|Sa- viour, A|lamp of pur- est|gold,||||||
 F2 | G2 F2 G2 A2 | c4 B2 B2 | c2 B2 c2 d2 | e4 || e4 | d2 c2 B2 c2 | A4 G2 B2 | E2 A2 G2 F2 | %19
w: We|praise thee for the|ra- diance That|from the hal- lowed|page,|||||
w: It|is the gol- den|cas- ket Where|gems of truth are|stored;|||||
w: It|is the chart and|com- pass That,|o'er life's surg- ing|sea,|||||
w: O|teach thy wander- ing|pil- grims By|this their path to|trace,|||||
 E6 |] %20
w: |
w: |
w: |
w: |
V:2
 E2 | E2 B,2 E2 E2 | E4 E2 E2 | C2 F2 E2 D2 | E6 || D2 | E2 B,2 E2 E2 | (E2 F2) G2 A2 | %8
w: |||||O|Truth, un- changed, un-|chang\- * ing, O|
w: |||||And|still that light she|lift\- * eth, O'er|
w: |||||It|shin- eth like a|bea\- * con, A-|
w: |||||To|bear be- fore the|na\- * tions Thy|
 G2 G2 F2 E2 | D6 || D2 | E2 D2 E2 D2 | F4 B,2 E2 | E2 E2 E2 A2 | G4 || =A4 | B2 F2 G2 G2 | %17
w: Light of our dark|sky,||||||||
w: all the earth to|shine;||||||||
w: bove the dark- ling|world;||||||||
w: true light, as of|old;||||||||
 (C2 D2) E2 E2 | E2 E2 E2 D2 | B,6 |] %20
w: |||
w: |||
w: |||
w: |||
V:3
 G,2 | B,2 G,2 A,2 B,2 | A,4 G,2 G,2 | F,2 C2 B,2 B,2 | B,6 || B,2 | B,2 G,2 A,2 B,2 | %7
w: |||||||
w: |||||||
w: |||||||
w: |||||||
 (C2 D2) E2 D2 | B,2 E2 D2 C2 | B,6 || B,2 | B,2 B,2 B,2 D2 | D4 E2 G,2 | A,2 G,2 A,2 F2 | E4 || %15
w: ||||||||
w: ||||||||
w: ||||||||
w: ||||||||
 (C2 F2) | F2 D2 E2 G,2 | (A,2 B,2) B,2 _D2 | C2 C2 B,2 A,2 | G,6 |] %20
w: A *|lan- tern to our|foot\- * steps, Shines|on from age to|age.|
w: It *|is the heaven- drawn|pic\- * ture Of|Christ, the liv- ing|Word;|
w: 'Mid *|mists and rocks and|quick\- * sands, Still|guides, O Christ, to|Thee.|
w: Till, *|clouds and dark- ness|end\- * ed, They|see Thee face to|face.|
V:4
 E,2 | E,2 G,2 C,2 E,2 | A,,4 E,2 C,2 | A,,2 A,,2 B,,2 B,,2 | E,6 || B,,2 | E,3 D, C,2 B,,2 | %7
 (A,,2 A,2) G,2 F,2 | E,2 E,2 F,2 F,2 | B,,6 || B,,2 | E,2 B,,2 E,2 F,2 | A,4 G,2 E,2 | %13
 A,2 E,2 A,2 F,2 | C4 || F,4 | B,2 _A,2 G,2 E,2 | (F,2 B,,2) E,2 G,2 | A,2 F,2 B,2 B,,2 | E,6 |] %20

